X:126 
T:Memories of Kesh (reel)
S:Donnelly < Jones
F:file ID: cre.4/126mem_kesh
B:CRE4.104 (CuÃÂÃÂÃÂÃÂ­mhnÃÂÃÂÃÂÃÂ­ ar an gCeis)
Q:180
L:1/8
M:4/4
R:reel
K:D
Bc|dD~D2 (3FED FA|B2AB c2Bc|dD~D2 (3FED FD|EDEF DAFA|
dD~D2 (3FED FA|B2AB c2Bc|dD~D2 (3FED FD|EDEF D2||
Bc|defg afbf|gfeg fdBc|defg afbf|gece d2 (3ABc|
defg afbf|gfeg fdBc|defg agab|afeg fedc |"last time" d8|]

%%%

